X:55
T:Rondeau de Saumejan
C:trad.
A:Landes
O:France
Z:S. Piron
M:2/4
L:1/8
Q:1/4=130
K:G
G>F GA|BA/2G/2AA|G>F GA|BA/2G/2A2:|
G>B AG|FED>E|EED>E|EED2:||
